src/assets/outline/Weight1.svg

<svg width="24" height="24" viewBox="0 0 24 24"  xmlns="http://www.w3.org/2000/svg">
<path d="M14 22.75H10C4.57 22.75 2.25 20.43 2.25 15V9C2.25 3.57 4.57 1.25 10 1.25H14C19.43 1.25 21.75 3.57 21.75 9V15C21.75 20.43 19.43 22.75 14 22.75ZM10 2.75C5.39 2.75 3.75 4.39 3.75 9V15C3.75 19.61 5.39 21.25 10 21.25H14C18.61 21.25 20.25 19.61 20.25 15V9C20.25 4.39 18.61 2.75 14 2.75H10Z" />
<path d="M15.0701 12.5396C14.8901 12.5396 14.7101 12.4696 14.5701 12.3496C13.1101 11.0496 10.8901 11.0496 9.43011 12.3496C9.27011 12.4996 9.05011 12.5596 8.82011 12.5296C8.60011 12.4996 8.41011 12.3696 8.29011 12.1796L6.11011 8.67961C5.92011 8.36961 5.98011 7.96961 6.25011 7.71961C9.53011 4.80961 14.4701 4.80961 17.7501 7.71961C18.0201 7.95961 18.0801 8.36961 17.8901 8.67961L15.7101 12.1796C15.5901 12.3696 15.4001 12.4896 15.1801 12.5296C15.1401 12.5296 15.1001 12.5396 15.0701 12.5396ZM12.0001 9.86961C13.0001 9.86961 13.9901 10.1496 14.8601 10.6996L16.2601 8.44961C13.7301 6.56961 10.2601 6.56961 7.73011 8.44961L9.13011 10.6996C10.0101 10.1396 11.0001 9.86961 12.0001 9.86961Z" />
</svg>

<?xml version="1.0" encoding="UTF-8"?>
<svg width="24" height="24" viewBox="0 0 24 24" xmlns="http://www.w3.org/2000/svg">
 <path d="m14 22.75h-4c-5.43 0-7.75-2.32-7.75-7.75v-6c0-5.43 2.32-7.75 7.75-7.75h4c5.43 0 7.75 2.32 7.75 7.75v6c0 5.43-2.32 7.75-7.75 7.75zm-4-20c-4.61 0-6.25 1.64-6.25 6.25v6c0 4.61 1.64 6.25 6.25 6.25h4c4.61 0 6.25-1.64 6.25-6.25v-6c0-4.61-1.64-6.25-6.25-6.25h-4z"/>
 <path d="m15.07 12.54c-0.18 0-0.36-0.07-0.5-0.19-1.46-1.3-3.68-1.3-5.14 0-0.16 0.15-0.38 0.21-0.61 0.18-0.22-0.03-0.41-0.16-0.53-0.35l-2.18-3.5c-0.19-0.31-0.13-0.71 0.14-0.96 3.28-2.91 8.22-2.91 11.5 0 0.27 0.24 0.33 0.65 0.14 0.96l-2.18 3.5c-0.12 0.19-0.31 0.31-0.53 0.35-0.04 0-0.08 0.01-0.11 0.01zm-3.07-2.67c1 0 1.99 0.27999 2.86 0.82999l1.4-2.25c-2.53-1.88-6-1.88-8.53 0l1.4 2.25c0.87999-0.56 1.87-0.82999 2.87-0.82999z"/>
</svg>
